X:310
T:Trip to Killavil
M:6/8
L:1/8
K:EDor
dc|BEE BEE|Bdf edB|BAF FEF|DFA dBA|\
BEE BAF|Bdf edB| BAF dAF|EFE Edc|
BEE BEE|Bdf edB|BAF DFE|DFA dBA|\
BEE BAF|Bdf edB|BAF dAF|B,CD E2 B|
|:e2 f gfe|faf edB|BAF FEF|DFA def|\
e2 f gfe|faf edB|BAF dAF|EFE E3 :|
